X: 34922
T: Rocket Reel
R: reel
M: 4/4
K: Amajor
cFEA ~F3 E|FAef eAcA|B/c/d/ec AB~B2|cF ~F2 EAed|
cFEA ~F3 E|FAEF FEFd|deed ~e2 ee|fBBA BAFA:|
dAFd AFde|~A3 c eABA|BE ~E2 BcB=c|BAFE EFFF|
dAFd AFde|cAec Aecd|defd de ~e2|fBBA BAFA|
dAFd AFde|~A3 c eABA|BE ~E2 BcB=c|BAFE EFFF|
dAFd AF B/c/d|~e3 d ecBA|defd de ~e2|ef ~f2 edce|

